X:31
T:First of August. MBe.31
S:Matthew Betham MS, Towcett Cumbria, 1815
O:England;Cumbria;Towcett
Z:VMP – Hugh Taylor, 2012
T:Glorious First of August,aka. MBe.31
T:Weaver’s March,aka. MBe.31
T:Frisky Jenny,aka. MBe.31
T:Come Jolly Bacchus,aka. MBe.31
T:Charles of Sweden,aka. MBe.31
M:C
L:1/8
Q:1/2=80
R:.Reel
C:in margin-‘M.B.’
K:D
d2|”^Key sig G in MS”ABAG F2 F2|GABG A2 A2|dedc B2 B2|g2 f2 e2 a2|
ABAG F2 F2|GABG A2 A2|Bcdc cdeg|f2 e2 d2:|
|:z2″^rest added”|fagf e2 dc|dfed c2 BA|dedc B2 B2|g2 f2 e2 a2|
ABAG F2 F2|GABG A2 A2|Bcdc cdeg|f2 e2 d2:|

